assets/img/bg-start-people-table.svg

<svg width="683" height="463" viewBox="0 0 683 463" fill="none" xmlns="http://www.w3.org/2000/svg">
<g filter="url(#filter0_d)">
<rect x="48" y="112" width="560" height="311" rx="10" fill="white"/>
</g>
<g filter="url(#filter1_d)">
<rect x="192" y="40" width="451" height="99" rx="10" fill="white"/>
</g>
<rect x="447" y="69" width="168" height="43" rx="4" fill="#CADDEE"/>
<rect x="458" y="79" width="25" height="23" rx="4" fill="white"/>
<line x1="492" y1="83.5" x2="548" y2="83.5" stroke="white" stroke-width="3"/>
<line x1="492" y1="91.5" x2="590" y2="91.5" stroke="white" stroke-width="3"/>
<line x1="492" y1="98.5" x2="590" y2="98.5" stroke="white" stroke-width="3"/>
<path d="M425.707 90.7071C426.098 90.3166 426.098 89.6834 425.707 89.2929L419.343 82.9289C418.953 82.5384 418.319 82.5384 417.929 82.9289C417.538 83.3195 417.538 83.9526 417.929 84.3431L423.586 90L417.929 95.6569C417.538 96.0474 417.538 96.6805 417.929 97.0711C418.319 97.4616 418.953 97.4616 419.343 97.0711L425.707 90.7071ZM388 91H425V89H388V91Z" fill="#CADDEE"/>
<path d="M88.8642 377.234C101.599 375.681 111.292 367.146 114.878 362.992C122.355 354.33 130.299 345.693 137.142 340.744L139.144 339.292C148.66 332.411 161.991 334.746 168.592 344.443L178.527 359.052C186.281 370.466 202.856 371.287 211.713 360.706L218.784 352.272C226.146 343.484 239.26 342.31 248.08 349.646C258.977 358.711 275.576 354.481 280.772 341.325L296.015 302.726C301.667 288.408 320.458 284.998 330.811 296.425L342.329 309.115C344.61 311.627 347.474 313.547 350.667 314.708L377.555 324.431C381.674 325.921 385.222 328.673 387.68 332.284L402.505 354.09C411.173 366.843 430.281 366.047 437.858 352.625L456.574 319.456C458.462 316.097 461.262 313.345 464.633 311.476L475.809 305.314C486.935 299.178 500.936 304.342 505.384 316.223L528.04 361.527C533.641 372.714 548.568 376.325 557.793 377.247" fill="url(#paint0_linear)"/>
<path d="M87.9392 246.715V377.638H569.881" stroke="#CADDEE" stroke-width="2" stroke-miterlimit="10"/>
<line x1="151.5" y1="335" x2="151.5" y2="271" stroke="#CADDEE"/>
<line x1="234.5" y1="345" x2="234.5" y2="281" stroke="#CADDEE"/>
<line x1="398.5" y1="348" x2="398.5" y2="284" stroke="#CADDEE"/>
<line x1="195.5" y1="368" x2="195.5" y2="333" stroke="#CADDEE"/>
<line x1="280.5" y1="341" x2="280.5" y2="306" stroke="#CADDEE"/>
<line x1="358.5" y1="317" x2="358.5" y2="282" stroke="#CADDEE"/>
<line x1="440.5" y1="348" x2="440.5" y2="313" stroke="#CADDEE"/>
<line x1="512.5" y1="331" x2="512.5" y2="296" stroke="#CADDEE"/>
<line x1="313.5" y1="290" x2="313.5" y2="276" stroke="#CADDEE"/>
<line x1="472.5" y1="307" x2="472.5" y2="293" stroke="#CADDEE"/>
<circle cx="152" cy="262" r="4" fill="#CADDEE"/>
<circle cx="235" cy="272" r="4" fill="#CADDEE"/>
<circle cx="399" cy="275" r="4" fill="#CADDEE"/>
<circle cx="196" cy="327" r="4" fill="#CADDEE"/>
<circle cx="281" cy="300" r="4" fill="#CADDEE"/>
<circle cx="359" cy="276" r="4" fill="#CADDEE"/>
<circle cx="441" cy="307" r="4" fill="#CADDEE"/>
<circle cx="513" cy="290" r="4" fill="#CADDEE"/>
<circle cx="314" cy="270" r="4" fill="#CADDEE"/>
<circle cx="473" cy="287" r="4" fill="#CADDEE"/>
<rect x="60" y="251" width="20" height="3" fill="#CADDEE"/>
<rect x="60" y="276" width="20" height="3" fill="#CADDEE"/>
<rect x="128" y="387" width="48" height="3" fill="#CADDEE"/>
<rect x="235" y="387" width="48" height="3" fill="#CADDEE"/>
<rect x="342" y="387" width="48" height="3" fill="#CADDEE"/>
<rect x="449" y="387" width="48" height="3" fill="#CADDEE"/>
<rect x="60" y="301" width="20" height="3" fill="#CADDEE"/>
<rect x="60" y="326" width="20" height="3" fill="#CADDEE"/>
<rect x="60" y="351" width="20" height="3" fill="#CADDEE"/>
<rect x="191" y="172" width="48" height="3" fill="#CADDEE"/>
<rect x="299" y="174" width="28" height="6" fill="#F4C6B7"/>
<rect x="417" y="174" width="28" height="6" fill="#F4C6B7"/>
<rect x="358" y="174" width="28" height="6" fill="#F4C6B7"/>
<rect x="476" y="174" width="28" height="6" fill="#F4C6B7"/>
<rect x="531" y="174" width="28" height="6" fill="#F4C6B7"/>
<rect x="328" y="206" width="28" height="6" fill="#ACB7CE"/>
<rect x="446" y="206" width="28" height="6" fill="#ACB7CE"/>
<rect x="387" y="206" width="28" height="6" fill="#ACB7CE"/>
<rect x="505" y="206" width="28" height="6" fill="#ACB7CE"/>
<rect x="191" y="180" width="48" height="3" fill="#CADDEE"/>
<rect x="191" y="188" width="48" height="3" fill="#CADDEE"/>
<path d="M131.908 157.562C145.013 157.562 155.633 168.176 155.633 181.264C155.633 184.463 155.003 187.507 153.856 190.292L170.739 202.225C174.113 195.991 176.028 188.852 176.028 181.273C176.028 156.924 156.28 137.188 131.917 137.188C131.641 137.188 131.365 137.196 131.089 137.196V157.579C131.348 157.57 131.624 157.562 131.908 157.562Z" fill="url(#paint1_linear)"/>
<path d="M129.674 137.239C106.346 138.403 87.7886 157.666 87.7886 181.273C87.7886 189.732 90.1697 197.621 94.3022 204.338L110.504 191.516C109.02 188.412 108.183 184.946 108.183 181.273C108.183 169.547 116.707 159.804 127.905 157.907C128.94 157.734 130.002 157.622 131.071 157.588V137.196C130.606 137.205 130.14 137.214 129.674 137.239Z" fill="#E0ECF7"/>
<path d="M131.908 225.359C148.68 225.359 163.268 216.004 170.731 202.225L153.847 190.292C150.293 198.906 141.812 204.976 131.908 204.976C122.479 204.976 114.335 199.475 110.513 191.508L94.3108 204.329C102.067 216.943 116 225.359 131.908 225.359Z" fill="#ACB7CE"/>
<path d="M122.124 180.19C122.983 180.33 123.641 180.652 124.098 181.156C124.555 181.651 124.784 182.267 124.784 183.004C124.784 183.573 124.635 184.101 124.336 184.586C124.037 185.062 123.58 185.445 122.964 185.734C122.357 186.023 121.611 186.168 120.724 186.168C120.033 186.168 119.352 186.079 118.68 185.902C118.017 185.715 117.453 185.454 116.986 185.118L117.868 183.382C118.241 183.662 118.671 183.881 119.156 184.04C119.651 184.189 120.155 184.264 120.668 184.264C121.237 184.264 121.685 184.157 122.012 183.942C122.339 183.718 122.502 183.405 122.502 183.004C122.502 182.201 121.891 181.8 120.668 181.8H119.632V180.302L121.648 178.02H117.476V176.2H124.336V177.67L122.124 180.19ZM130.031 186.168C129.219 186.168 128.496 185.967 127.861 185.566C127.226 185.165 126.727 184.586 126.363 183.83C126.008 183.065 125.831 182.155 125.831 181.1C125.831 180.045 126.008 179.14 126.363 178.384C126.727 177.619 127.226 177.035 127.861 176.634C128.496 176.233 129.219 176.032 130.031 176.032C130.843 176.032 131.566 176.233 132.201 176.634C132.836 177.035 133.33 177.619 133.685 178.384C134.049 179.14 134.231 180.045 134.231 181.1C134.231 182.155 134.049 183.065 133.685 183.83C133.33 184.586 132.836 185.165 132.201 185.566C131.566 185.967 130.843 186.168 130.031 186.168ZM130.031 184.25C130.628 184.25 131.095 183.993 131.431 183.48C131.776 182.967 131.949 182.173 131.949 181.1C131.949 180.027 131.776 179.233 131.431 178.72C131.095 178.207 130.628 177.95 130.031 177.95C129.443 177.95 128.976 178.207 128.631 178.72C128.295 179.233 128.127 180.027 128.127 181.1C128.127 182.173 128.295 182.967 128.631 183.48C128.976 183.993 129.443 184.25 130.031 184.25ZM137.601 181.492C136.882 181.492 136.294 181.249 135.837 180.764C135.389 180.269 135.165 179.611 135.165 178.79C135.165 177.969 135.389 177.315 135.837 176.83C136.294 176.335 136.882 176.088 137.601 176.088C138.32 176.088 138.903 176.335 139.351 176.83C139.799 177.315 140.023 177.969 140.023 178.79C140.023 179.611 139.799 180.269 139.351 180.764C138.903 181.249 138.32 181.492 137.601 181.492ZM143.439 176.2H145.105L138.413 186H136.747L143.439 176.2ZM137.601 180.344C137.918 180.344 138.166 180.213 138.343 179.952C138.53 179.691 138.623 179.303 138.623 178.79C138.623 178.277 138.53 177.889 138.343 177.628C138.166 177.367 137.918 177.236 137.601 177.236C137.293 177.236 137.046 177.371 136.859 177.642C136.672 177.903 136.579 178.286 136.579 178.79C136.579 179.294 136.672 179.681 136.859 179.952C137.046 180.213 137.293 180.344 137.601 180.344ZM144.251 186.112C143.784 186.112 143.364 186.005 142.991 185.79C142.627 185.566 142.342 185.249 142.137 184.838C141.932 184.427 141.829 183.951 141.829 183.41C141.829 182.869 141.932 182.393 142.137 181.982C142.342 181.571 142.627 181.259 142.991 181.044C143.364 180.82 143.784 180.708 144.251 180.708C144.97 180.708 145.553 180.955 146.001 181.45C146.458 181.935 146.687 182.589 146.687 183.41C146.687 184.231 146.458 184.889 146.001 185.384C145.553 185.869 144.97 186.112 144.251 186.112ZM144.251 184.964C144.568 184.964 144.816 184.833 144.993 184.572C145.18 184.301 145.273 183.914 145.273 183.41C145.273 182.906 145.18 182.523 144.993 182.262C144.816 181.991 144.568 181.856 144.251 181.856C143.943 181.856 143.696 181.987 143.509 182.248C143.322 182.509 143.229 182.897 143.229 183.41C143.229 183.923 143.322 184.311 143.509 184.572C143.696 184.833 143.943 184.964 144.251 184.964Z" fill="#CADDEE"/>
<line x1="293" y1="194" x2="570" y2="194" stroke="#CADDEE" stroke-width="2"/>
<circle cx="314" cy="194" r="4" fill="#F4C6B7" stroke="white" stroke-width="2"/>
<circle cx="343" cy="194" r="4" fill="#ACB7CE" stroke="white" stroke-width="2"/>
<circle cx="372" cy="194" r="4" fill="#F4C6B7" stroke="white" stroke-width="2"/>
<circle cx="401" cy="194" r="4" fill="#ACB7CE" stroke="white" stroke-width="2"/>
<circle cx="430" cy="194" r="4" fill="#F4C6B7" stroke="white" stroke-width="2"/>
<circle cx="459" cy="194" r="4" fill="#ACB7CE" stroke="white" stroke-width="2"/>
<circle cx="488" cy="194" r="4" fill="#F4C6B7" stroke="white" stroke-width="2"/>
<circle cx="517" cy="194" r="4" fill="#ACB7CE" stroke="white" stroke-width="2"/>
<circle cx="546" cy="194" r="4" fill="#F4C6B7" stroke="white" stroke-width="2"/>
<path d="M229.547 77C226.058 77 223.219 79.8388 223.219 83.3281C223.219 86.8175 226.058 89.6563 229.547 89.6563C233.036 89.6563 235.875 86.8175 235.875 83.3281C235.875 79.8388 233.036 77 229.547 77Z" fill="#ACB7CE"/>
<path d="M237.42 93.7904C235.688 92.0313 233.391 91.0625 230.953 91.0625H228.141C225.703 91.0625 223.406 92.0313 221.673 93.7904C219.949 95.5409 219 97.8515 219 100.297C219 100.685 219.315 101 219.703 101H239.391C239.779 101 240.094 100.685 240.094 100.297C240.094 97.8515 239.144 95.5409 237.42 93.7904Z" fill="#ACB7CE"/>
<path d="M261.547 77C258.058 77 255.219 79.8388 255.219 83.3281C255.219 86.8175 258.058 89.6563 261.547 89.6563C265.036 89.6563 267.875 86.8175 267.875 83.3281C267.875 79.8388 265.036 77 261.547 77Z" fill="#ACB7CE"/>
<path d="M269.42 93.7904C267.688 92.0313 265.391 91.0625 262.953 91.0625H260.141C257.703 91.0625 255.406 92.0313 253.673 93.7904C251.949 95.5409 251 97.8515 251 100.297C251 100.685 251.315 101 251.703 101H271.391C271.779 101 272.094 100.685 272.094 100.297C272.094 97.8515 271.144 95.5409 269.42 93.7904Z" fill="#ACB7CE"/>
<path d="M293.547 77C290.058 77 287.219 79.8388 287.219 83.3281C287.219 86.8175 290.058 89.6563 293.547 89.6563C297.036 89.6563 299.875 86.8175 299.875 83.3281C299.875 79.8388 297.036 77 293.547 77Z" fill="#ACB7CE"/>
<path d="M301.42 93.7904C299.688 92.0313 297.391 91.0625 294.953 91.0625H292.141C289.703 91.0625 287.406 92.0313 285.673 93.7904C283.949 95.5409 283 97.8515 283 100.297C283 100.685 283.315 101 283.703 101H303.391C303.779 101 304.094 100.685 304.094 100.297C304.094 97.8515 303.144 95.5409 301.42 93.7904Z" fill="#ACB7CE"/>
<path d="M325.547 77C322.058 77 319.219 79.8388 319.219 83.3281C319.219 86.8175 322.058 89.6563 325.547 89.6563C329.036 89.6563 331.875 86.8175 331.875 83.3281C331.875 79.8388 329.036 77 325.547 77Z" fill="#ACB7CE"/>
<path d="M333.42 93.7904C331.688 92.0313 329.391 91.0625 326.953 91.0625H324.141C321.703 91.0625 319.406 92.0313 317.673 93.7904C315.949 95.5409 315 97.8515 315 100.297C315 100.685 315.315 101 315.703 101H335.391C335.779 101 336.094 100.685 336.094 100.297C336.094 97.8515 335.144 95.5409 333.42 93.7904Z" fill="#ACB7CE"/>
<path d="M357.547 77C354.058 77 351.219 79.8388 351.219 83.3281C351.219 86.8175 354.058 89.6563 357.547 89.6563C361.036 89.6563 363.875 86.8175 363.875 83.3281C363.875 79.8388 361.036 77 357.547 77Z" fill="#ACB7CE"/>
<path d="M365.42 93.7904C363.688 92.0313 361.391 91.0625 358.953 91.0625H356.141C353.703 91.0625 351.406 92.0313 349.673 93.7904C347.949 95.5409 347 97.8515 347 100.297C347 100.685 347.315 101 347.703 101H367.391C367.779 101 368.094 100.685 368.094 100.297C368.094 97.8515 367.144 95.5409 365.42 93.7904Z" fill="#ACB7CE"/>
<defs>
<filter id="filter0_d" x="8" y="72" width="640" height="391" filterUnits="userSpaceOnUse" color-interpolation-filters="sRGB">
<feFlood flood-opacity="0" result="BackgroundImageFix"/>
<feColorMatrix in="SourceAlpha" type="matrix" values="0 0 0 0 0 0 0 0 0 0 0 0 0 0 0 0 0 0 127 0"/>
<feOffset/>
<feGaussianBlur stdDeviation="20"/>
<feColorMatrix type="matrix" values="0 0 0 0 0 0 0 0 0 0 0 0 0 0 0 0 0 0 0.15 0"/>
<feBlend mode="normal" in2="BackgroundImageFix" result="effect1_dropShadow"/>
<feBlend mode="normal" in="SourceGraphic" in2="effect1_dropShadow" result="shape"/>
</filter>
<filter id="filter1_d" x="152" y="0" width="531" height="179" filterUnits="userSpaceOnUse" color-interpolation-filters="sRGB">
<feFlood flood-opacity="0" result="BackgroundImageFix"/>
<feColorMatrix in="SourceAlpha" type="matrix" values="0 0 0 0 0 0 0 0 0 0 0 0 0 0 0 0 0 0 127 0"/>
<feOffset/>
<feGaussianBlur stdDeviation="20"/>
<feColorMatrix type="matrix" values="0 0 0 0 0 0 0 0 0 0 0 0 0 0 0 0 0 0 0.15 0"/>
<feBlend mode="normal" in2="BackgroundImageFix" result="effect1_dropShadow"/>
<feBlend mode="normal" in="SourceGraphic" in2="effect1_dropShadow" result="shape"/>
</filter>
<linearGradient id="paint0_linear" x1="315.063" y1="102.059" x2="326.864" y2="497.324" gradientUnits="userSpaceOnUse">
<stop offset="0.4262" stop-color="#F4C6B7"/>
<stop offset="0.7299" stop-color="#F7E8E0"/>
</linearGradient>
<linearGradient id="paint1_linear" x1="184" y1="151" x2="125" y2="185" gradientUnits="userSpaceOnUse">
<stop stop-color="#F4C6B7"/>
<stop offset="1" stop-color="#F7E8E0"/>
</linearGradient>
</defs>
</svg>

<svg width="683" height="463" viewBox="0 0 683 463" fill="none" xmlns="http://www.w3.org/2000/svg"><g filter="url(#filter0_d)"><rect x="48" y="112" width="560" height="311" rx="10" fill="#fff"/></g><g filter="url(#filter1_d)"><rect x="192" y="40" width="451" height="99" rx="10" fill="#fff"/></g><rect x="447" y="69" width="168" height="43" rx="4" fill="#CADDEE"/><rect x="458" y="79" width="25" height="23" rx="4" fill="#fff"/><path stroke="#fff" stroke-width="3" d="M492 83.5h56m-56 8h98m-98 7h98"/><path d="M425.707 90.707a1 1 0 000-1.414l-6.364-6.364a1 1 0 10-1.414 1.414L423.586 90l-5.657 5.657a1 1 0 101.414 1.414l6.364-6.364zM388 91h37v-2h-37v2z" fill="#CADDEE"/><path d="M88.864 377.234c12.735-1.553 22.428-10.088 26.014-14.242 7.477-8.662 15.421-17.299 22.264-22.248l2.002-1.452c9.516-6.881 22.847-4.546 29.448 5.151l9.935 14.609c7.754 11.414 24.329 12.235 33.186 1.654l7.071-8.434c7.362-8.788 20.476-9.962 29.296-2.626 10.897 9.065 27.496 4.835 32.692-8.321l15.243-38.599c5.652-14.318 24.443-17.728 34.796-6.301l11.518 12.69a20.92 20.92 0 008.338 5.593l26.888 9.723a20.82 20.82 0 0110.125 7.853l14.825 21.806c8.668 12.753 27.776 11.957 35.353-1.465l18.716-33.169a20.79 20.79 0 018.059-7.98l11.176-6.162c11.126-6.136 25.127-.972 29.575 10.909l22.656 45.304c5.601 11.187 20.528 14.798 29.753 15.72" fill="url(#paint0_linear)"/><path d="M87.94 246.715v130.923h481.94" stroke="#CADDEE" stroke-width="2" stroke-miterlimit="10"/><path stroke="#CADDEE" d="M151.5 335v-64m83 74v-64m164 67v-64m-203 84v-35m85 8v-35m78 11v-35m82 66v-35m72 18v-35m-199-6v-14m159 31v-14"/><circle cx="152" cy="262" r="4" fill="#CADDEE"/><circle cx="235" cy="272" r="4" fill="#CADDEE"/><circle cx="399" cy="275" r="4" fill="#CADDEE"/><circle cx="196" cy="327" r="4" fill="#CADDEE"/><circle cx="281" cy="300" r="4" fill="#CADDEE"/><circle cx="359" cy="276" r="4" fill="#CADDEE"/><circle cx="441" cy="307" r="4" fill="#CADDEE"/><circle cx="513" cy="290" r="4" fill="#CADDEE"/><circle cx="314" cy="270" r="4" fill="#CADDEE"/><circle cx="473" cy="287" r="4" fill="#CADDEE"/><path fill="#CADDEE" d="M60 251h20v3H60zm0 25h20v3H60zm68 111h48v3h-48zm107 0h48v3h-48zm107 0h48v3h-48zm107 0h48v3h-48zM60 301h20v3H60zm0 25h20v3H60zm0 25h20v3H60zm131-179h48v3h-48z"/><path fill="#F4C6B7" d="M299 174h28v6h-28zm118 0h28v6h-28zm-59 0h28v6h-28zm118 0h28v6h-28zm55 0h28v6h-28z"/><path fill="#ACB7CE" d="M328 206h28v6h-28zm118 0h28v6h-28zm-59 0h28v6h-28zm118 0h28v6h-28z"/><path fill="#CADDEE" d="M191 180h48v3h-48zm0 8h48v3h-48z"/><path d="M131.908 157.562c13.105 0 23.725 10.614 23.725 23.702 0 3.199-.63 6.243-1.777 9.028l16.883 11.933a43.894 43.894 0 005.289-20.952c0-24.349-19.748-44.085-44.111-44.085-.276 0-.552.008-.828.008v20.383c.259-.009.535-.017.819-.017z" fill="url(#paint1_linear)"/><path d="M129.674 137.239c-23.328 1.164-41.885 20.427-41.885 44.034a43.846 43.846 0 006.513 23.065l16.202-12.822a23.663 23.663 0 01-2.321-10.243c0-11.726 8.524-21.469 19.722-23.366a23.843 23.843 0 013.166-.319v-20.392c-.465.009-.931.018-1.397.043z" fill="#E0ECF7"/><path d="M131.908 225.359c16.772 0 31.36-9.355 38.823-23.134l-16.884-11.933c-3.554 8.614-12.035 14.684-21.939 14.684-9.429 0-17.573-5.501-21.395-13.468l-16.202 12.821c7.756 12.614 21.689 21.03 37.597 21.03z" fill="#ACB7CE"/><path d="M122.124 180.19c.859.14 1.517.462 1.974.966.457.495.686 1.111.686 1.848a2.96 2.96 0 01-.448 1.582c-.299.476-.756.859-1.372 1.148-.607.289-1.353.434-2.24.434a7.991 7.991 0 01-2.044-.266c-.663-.187-1.227-.448-1.694-.784l.882-1.736c.373.28.803.499 1.288.658.495.149.999.224 1.512.224.569 0 1.017-.107 1.344-.322.327-.224.49-.537.49-.938 0-.803-.611-1.204-1.834-1.204h-1.036v-1.498l2.016-2.282h-4.172v-1.82h6.86v1.47l-2.212 2.52zm7.907 5.978c-.812 0-1.535-.201-2.17-.602-.635-.401-1.134-.98-1.498-1.736-.355-.765-.532-1.675-.532-2.73s.177-1.96.532-2.716c.364-.765.863-1.349 1.498-1.75s1.358-.602 2.17-.602c.812 0 1.535.201 2.17.602.635.401 1.129.985 1.484 1.75.364.756.546 1.661.546 2.716 0 1.055-.182 1.965-.546 2.73-.355.756-.849 1.335-1.484 1.736s-1.358.602-2.17.602zm0-1.918c.597 0 1.064-.257 1.4-.77.345-.513.518-1.307.518-2.38s-.173-1.867-.518-2.38c-.336-.513-.803-.77-1.4-.77-.588 0-1.055.257-1.4.77-.336.513-.504 1.307-.504 2.38s.168 1.867.504 2.38c.345.513.812.77 1.4.77zm7.57-2.758c-.719 0-1.307-.243-1.764-.728-.448-.495-.672-1.153-.672-1.974s.224-1.475.672-1.96c.457-.495 1.045-.742 1.764-.742.719 0 1.302.247 1.75.742.448.485.672 1.139.672 1.96s-.224 1.479-.672 1.974c-.448.485-1.031.728-1.75.728zm5.838-5.292h1.666l-6.692 9.8h-1.666l6.692-9.8zm-5.838 4.144a.848.848 0 00.742-.392c.187-.261.28-.649.28-1.162 0-.513-.093-.901-.28-1.162a.848.848 0 00-.742-.392c-.308 0-.555.135-.742.406-.187.261-.28.644-.28 1.148 0 .504.093.891.28 1.162a.87.87 0 00.742.392zm6.65 5.768c-.467 0-.887-.107-1.26-.322a2.286 2.286 0 01-.854-.952c-.205-.411-.308-.887-.308-1.428 0-.541.103-1.017.308-1.428.205-.411.49-.723.854-.938a2.4 2.4 0 011.26-.336c.719 0 1.302.247 1.75.742.457.485.686 1.139.686 1.96s-.229 1.479-.686 1.974c-.448.485-1.031.728-1.75.728zm0-1.148a.848.848 0 00.742-.392c.187-.271.28-.658.28-1.162 0-.504-.093-.887-.28-1.148a.84.84 0 00-.742-.406.87.87 0 00-.742.392c-.187.261-.28.649-.28 1.162 0 .513.093.901.28 1.162a.87.87 0 00.742.392z" fill="#CADDEE"/><path stroke="#CADDEE" stroke-width="2" d="M293 194h277"/><circle cx="314" cy="194" r="4" fill="#F4C6B7" stroke="#fff" stroke-width="2"/><circle cx="343" cy="194" r="4" fill="#ACB7CE" stroke="#fff" stroke-width="2"/><circle cx="372" cy="194" r="4" fill="#F4C6B7" stroke="#fff" stroke-width="2"/><circle cx="401" cy="194" r="4" fill="#ACB7CE" stroke="#fff" stroke-width="2"/><circle cx="430" cy="194" r="4" fill="#F4C6B7" stroke="#fff" stroke-width="2"/><circle cx="459" cy="194" r="4" fill="#ACB7CE" stroke="#fff" stroke-width="2"/><circle cx="488" cy="194" r="4" fill="#F4C6B7" stroke="#fff" stroke-width="2"/><circle cx="517" cy="194" r="4" fill="#ACB7CE" stroke="#fff" stroke-width="2"/><circle cx="546" cy="194" r="4" fill="#F4C6B7" stroke="#fff" stroke-width="2"/><path d="M229.547 77a6.335 6.335 0 00-6.328 6.328 6.335 6.335 0 006.328 6.328 6.335 6.335 0 006.328-6.328A6.335 6.335 0 00229.547 77zm7.873 16.79c-1.732-1.759-4.029-2.728-6.467-2.728h-2.812c-2.438 0-4.735.97-6.468 2.728a9.222 9.222 0 00-2.673 6.507c0 .388.315.703.703.703h19.688a.703.703 0 00.703-.703c0-2.445-.95-4.756-2.674-6.507zM261.547 77a6.335 6.335 0 00-6.328 6.328 6.335 6.335 0 006.328 6.328 6.335 6.335 0 006.328-6.328A6.335 6.335 0 00261.547 77zm7.873 16.79c-1.732-1.759-4.029-2.728-6.467-2.728h-2.812c-2.438 0-4.735.97-6.468 2.728a9.222 9.222 0 00-2.673 6.507c0 .388.315.703.703.703h19.688a.703.703 0 00.703-.703c0-2.445-.95-4.756-2.674-6.507zM293.547 77a6.335 6.335 0 00-6.328 6.328 6.335 6.335 0 006.328 6.328 6.335 6.335 0 006.328-6.328A6.335 6.335 0 00293.547 77zm7.873 16.79c-1.732-1.759-4.029-2.728-6.467-2.728h-2.812c-2.438 0-4.735.97-6.468 2.728a9.222 9.222 0 00-2.673 6.507c0 .388.315.703.703.703h19.688a.703.703 0 00.703-.703c0-2.445-.95-4.756-2.674-6.507zM325.547 77a6.335 6.335 0 00-6.328 6.328 6.335 6.335 0 006.328 6.328 6.335 6.335 0 006.328-6.328A6.335 6.335 0 00325.547 77zm7.873 16.79c-1.732-1.759-4.029-2.728-6.467-2.728h-2.812c-2.438 0-4.735.97-6.468 2.728a9.222 9.222 0 00-2.673 6.507c0 .388.315.703.703.703h19.688a.703.703 0 00.703-.703c0-2.445-.95-4.756-2.674-6.507zM357.547 77a6.335 6.335 0 00-6.328 6.328 6.335 6.335 0 006.328 6.328 6.335 6.335 0 006.328-6.328A6.335 6.335 0 00357.547 77zm7.873 16.79c-1.732-1.759-4.029-2.728-6.467-2.728h-2.812c-2.438 0-4.735.97-6.468 2.728a9.222 9.222 0 00-2.673 6.507c0 .388.315.703.703.703h19.688a.703.703 0 00.703-.703c0-2.445-.95-4.756-2.674-6.507z" fill="#ACB7CE"/><defs><linearGradient id="paint0_linear" x1="315.063" y1="102.059" x2="326.864" y2="497.324" gradientUnits="userSpaceOnUse"><stop offset=".426" stop-color="#F4C6B7"/><stop offset=".73" stop-color="#F7E8E0"/></linearGradient><linearGradient id="paint1_linear" x1="184" y1="151" x2="125" y2="185" gradientUnits="userSpaceOnUse"><stop stop-color="#F4C6B7"/><stop offset="1" stop-color="#F7E8E0"/></linearGradient><filter id="filter0_d" x="8" y="72" width="640" height="391" filterUnits="userSpaceOnUse" color-interpolation-filters="sRGB"><feFlood flood-opacity="0" result="BackgroundImageFix"/><feColorMatrix in="SourceAlpha" values="0 0 0 0 0 0 0 0 0 0 0 0 0 0 0 0 0 0 127 0"/><feOffset/><feGaussianBlur stdDeviation="20"/><feColorMatrix values="0 0 0 0 0 0 0 0 0 0 0 0 0 0 0 0 0 0 0.15 0"/><feBlend in2="BackgroundImageFix" result="effect1_dropShadow"/><feBlend in="SourceGraphic" in2="effect1_dropShadow" result="shape"/></filter><filter id="filter1_d" x="152" y="0" width="531" height="179" filterUnits="userSpaceOnUse" color-interpolation-filters="sRGB"><feFlood flood-opacity="0" result="BackgroundImageFix"/><feColorMatrix in="SourceAlpha" values="0 0 0 0 0 0 0 0 0 0 0 0 0 0 0 0 0 0 127 0"/><feOffset/><feGaussianBlur stdDeviation="20"/><feColorMatrix values="0 0 0 0 0 0 0 0 0 0 0 0 0 0 0 0 0 0 0.15 0"/><feBlend in2="BackgroundImageFix" result="effect1_dropShadow"/><feBlend in="SourceGraphic" in2="effect1_dropShadow" result="shape"/></filter></defs></svg>
